X:8
T:Die Morgenstunde (Walzer) D (tinwhistle in D)
T:wz05163 (Hanny Christen)
%%MIDI program 72   % 111 /74 / 79=whistle
R:waltz
M:3/4
L:1/4
K:D %%MIDI gchordon
"D"F/2F/2 FA | B>AA | d/2d/2de | "A7"d>cc | c/2c/2cB | B>AA |1 c/2c/2 cB | "D"B>AA :|2 ((3A/2c/2e/2) a>c | "D"dzA || 
"D"(f3 | f)ed | "A7"dc>d | c2G | dcd | c2B | "D"BA>B | AB/2c/2 d/2e/2 | f3 | fed | "A7"dc>d | 
c2B | AA/2A/2 A/2A/2 | ABc | "D"d>dd | dzA/2A/2 ||"D"FAd | fed | "A7"c/2a/2a>c | g3 | c/2a/2a>c | 
g2c | "D"d/2f/2 a/2d/2 f/2a/2 | d'zz | FAd | fed | "A7"c/2b/2b>c | g3 | c/2b/2b>c | g2c | "D"d>dd | dzz |] 
W:
W: part A transposed form G to D (trespassing? simply delete it)

